ligands/tridentate/ida-iminodiacetate.svg

<svg height="256" viewBox="0 0 256 256" width="256" xmlns="http://www.w3.org/2000/svg"><path d="m0 0h256v256h-256z" fill="#fff"/><ellipse cx="121.1" cy="105.3" fill="#ff7f7f" fill-rule="evenodd" rx="13.3" ry="13.3" stroke="#ff7f7f"/><g fill="none" stroke="#000" stroke-width="2"><path d="m71.9 119.8-9 27.3"/><path d="m64.2 143.2-35 11.2"/><path d="m66.2 149.5-35 11.2"/><path d="m62.9 147.1 35.7 26.2"/><path d="m98.6 173.3 26.5-19.1"/><path d="m144 147.5 34.8.2"/><path d="m178.8 147.7 13.9-42"/><path d="m192.7 105.7-26.3-19.3"/><path d="m191.4 109.6 35-11.2"/><path d="m189.4 103.2 35-11.2"/><path d="m93.1 105.2 18.5.1"/><path d="m131.5 138-5.7-18"/><path d="m147.6 86.2-17.1 12.3"/><path d="m63.4 145.7-.5 1.4 1.8 1.3" stroke-miterlimit="10"/><path d="m96.8 172 1.8 1.3 1.3-1" stroke-miterlimit="10"/><path d="m177 147.7h1.8l.7-2.1" stroke-miterlimit="10"/><path d="m192 107.8.7-2.1-1.3-1" stroke-miterlimit="10"/></g><text x="113.1" y="118.6"/><text font-family="sans-serif" font-size="26" x="68.8" y="118.4">O</text><text font-family="sans-serif" font-size="17" x="87.2" y="107.7">-</text><text font-family="sans-serif" font-size="26" x="12.8" y="173.9">O</text><text font-family="sans-serif" font-size="26" x="126.6" y="160.7">N</text><text font-family="sans-serif" font-size="26" x="126.6" y="184.1">H</text><text font-family="sans-serif" font-size="26" x="149" y="92.7">O</text><text font-family="sans-serif" font-size="17" x="167.4" y="82.1">-</text><text font-family="sans-serif" font-size="26" x="226.9" y="105.5">O</text></svg>

<?xml version='1.0' encoding='iso-8859-1'?>
<svg version='1.1' baseProfile='full'
              xmlns='http://www.w3.org/2000/svg'
                      xmlns:rdkit='http://www.rdkit.org/xml'
                      xmlns:xlink='http://www.w3.org/1999/xlink'
                  xml:space='preserve'
width='256px' height='256px' viewBox='0 0 256 256'>
<!-- END OF HEADER -->
<rect style='opacity:1.0;fill:#FFFFFF;stroke:none' width='256.0' height='256.0' x='0.0' y='0.0'> </rect>
<ellipse cx='121.1' cy='105.3' rx='13.3' ry='13.3' class='atom-0'  style='fill:#FF7F7F;fill-rule:evenodd;stroke:#FF7F7F;stroke-width:1.0px;stroke-linecap:butt;stroke-linejoin:miter;stroke-opacity:1' />
<path class='bond-0 atom-1 atom-2' d='M 71.9,119.8 L 62.9,147.1' style='fill:none;fill-rule:evenodd;stroke:#000000;stroke-width:2.0px;stroke-linecap:butt;stroke-linejoin:miter;stroke-opacity:1' />
<path class='bond-1 atom-2 atom-3' d='M 64.2,143.2 L 29.2,154.4' style='fill:none;fill-rule:evenodd;stroke:#000000;stroke-width:2.0px;stroke-linecap:butt;stroke-linejoin:miter;stroke-opacity:1' />
<path class='bond-1 atom-2 atom-3' d='M 66.2,149.5 L 31.2,160.7' style='fill:none;fill-rule:evenodd;stroke:#000000;stroke-width:2.0px;stroke-linecap:butt;stroke-linejoin:miter;stroke-opacity:1' />
<path class='bond-2 atom-2 atom-4' d='M 62.9,147.1 L 98.6,173.3' style='fill:none;fill-rule:evenodd;stroke:#000000;stroke-width:2.0px;stroke-linecap:butt;stroke-linejoin:miter;stroke-opacity:1' />
<path class='bond-3 atom-4 atom-5' d='M 98.6,173.3 L 125.1,154.2' style='fill:none;fill-rule:evenodd;stroke:#000000;stroke-width:2.0px;stroke-linecap:butt;stroke-linejoin:miter;stroke-opacity:1' />
<path class='bond-4 atom-5 atom-6' d='M 144.0,147.5 L 178.8,147.7' style='fill:none;fill-rule:evenodd;stroke:#000000;stroke-width:2.0px;stroke-linecap:butt;stroke-linejoin:miter;stroke-opacity:1' />
<path class='bond-5 atom-6 atom-7' d='M 178.8,147.7 L 192.7,105.7' style='fill:none;fill-rule:evenodd;stroke:#000000;stroke-width:2.0px;stroke-linecap:butt;stroke-linejoin:miter;stroke-opacity:1' />
<path class='bond-6 atom-7 atom-8' d='M 192.7,105.7 L 166.4,86.4' style='fill:none;fill-rule:evenodd;stroke:#000000;stroke-width:2.0px;stroke-linecap:butt;stroke-linejoin:miter;stroke-opacity:1' />
<path class='bond-7 atom-7 atom-9' d='M 191.4,109.6 L 226.4,98.4' style='fill:none;fill-rule:evenodd;stroke:#000000;stroke-width:2.0px;stroke-linecap:butt;stroke-linejoin:miter;stroke-opacity:1' />
<path class='bond-7 atom-7 atom-9' d='M 189.4,103.2 L 224.4,92.0' style='fill:none;fill-rule:evenodd;stroke:#000000;stroke-width:2.0px;stroke-linecap:butt;stroke-linejoin:miter;stroke-opacity:1' />
<path class='bond-8 atom-1 atom-0' d='M 93.1,105.2 L 111.6,105.3' style='fill:none;fill-rule:evenodd;stroke:#000000;stroke-width:2.0px;stroke-linecap:butt;stroke-linejoin:miter;stroke-opacity:1' />
<path class='bond-9 atom-5 atom-0' d='M 131.5,138.0 L 125.8,120.0' style='fill:none;fill-rule:evenodd;stroke:#000000;stroke-width:2.0px;stroke-linecap:butt;stroke-linejoin:miter;stroke-opacity:1' />
<path class='bond-10 atom-8 atom-0' d='M 147.6,86.2 L 130.5,98.5' style='fill:none;fill-rule:evenodd;stroke:#000000;stroke-width:2.0px;stroke-linecap:butt;stroke-linejoin:miter;stroke-opacity:1' />
<path d='M 63.4,145.7 L 62.9,147.1 L 64.7,148.4' style='fill:none;stroke:#000000;stroke-width:2.0px;stroke-linecap:butt;stroke-linejoin:miter;stroke-miterlimit:10;stroke-opacity:1;' />
<path d='M 96.8,172.0 L 98.6,173.3 L 99.9,172.3' style='fill:none;stroke:#000000;stroke-width:2.0px;stroke-linecap:butt;stroke-linejoin:miter;stroke-miterlimit:10;stroke-opacity:1;' />
<path d='M 177.0,147.7 L 178.8,147.7 L 179.5,145.6' style='fill:none;stroke:#000000;stroke-width:2.0px;stroke-linecap:butt;stroke-linejoin:miter;stroke-miterlimit:10;stroke-opacity:1;' />
<path d='M 192.0,107.8 L 192.7,105.7 L 191.4,104.7' style='fill:none;stroke:#000000;stroke-width:2.0px;stroke-linecap:butt;stroke-linejoin:miter;stroke-miterlimit:10;stroke-opacity:1;' />
<text x='113.1' y='118.6' class='atom-0' style='font-size:26px;font-style:normal;font-weight:normal;fill-opacity:1;stroke:none;font-family:sans-serif;text-anchor:start;fill:#000000' ></text>
<text x='68.8' y='118.4' class='atom-1' style='font-size:26px;font-style:normal;font-weight:normal;fill-opacity:1;stroke:none;font-family:sans-serif;text-anchor:start;fill:#000000' >O</text>
<text x='87.2' y='107.7' class='atom-1' style='font-size:17px;font-style:normal;font-weight:normal;fill-opacity:1;stroke:none;font-family:sans-serif;text-anchor:start;fill:#000000' >-</text>
<text x='12.8' y='173.9' class='atom-3' style='font-size:26px;font-style:normal;font-weight:normal;fill-opacity:1;stroke:none;font-family:sans-serif;text-anchor:start;fill:#000000' >O</text>
<text x='126.6' y='160.7' class='atom-5' style='font-size:26px;font-style:normal;font-weight:normal;fill-opacity:1;stroke:none;font-family:sans-serif;text-anchor:start;fill:#000000' >N</text>
<text x='126.6' y='184.1' class='atom-5' style='font-size:26px;font-style:normal;font-weight:normal;fill-opacity:1;stroke:none;font-family:sans-serif;text-anchor:start;fill:#000000' >H</text>
<text x='149.0' y='92.7' class='atom-8' style='font-size:26px;font-style:normal;font-weight:normal;fill-opacity:1;stroke:none;font-family:sans-serif;text-anchor:start;fill:#000000' >O</text>
<text x='167.4' y='82.1' class='atom-8' style='font-size:17px;font-style:normal;font-weight:normal;fill-opacity:1;stroke:none;font-family:sans-serif;text-anchor:start;fill:#000000' >-</text>
<text x='226.9' y='105.5' class='atom-9' style='font-size:26px;font-style:normal;font-weight:normal;fill-opacity:1;stroke:none;font-family:sans-serif;text-anchor:start;fill:#000000' >O</text>
</svg>
